apps/documenteditor/main/resources/img/toolbar/2.5x/btn-fixed-field.svg

<svg xmlns="http://www.w3.org/2000/svg" width="20" height="20" fill="none"><path fill="#000" d="M9 8H8v4h1v1H6v-1h1V8H6V7h3v1Z"/><path fill="#000" d="M5 5h10V3h3v3h-2v8h2v3h-3v-2H5v2H2v-3h2V6H2V3h3v2ZM3 16h1v-1H3v1Zm13 0h1v-1h-1v1ZM5 14h10V6H5v8ZM3 5h1V4H3v1Zm13 0h1V4h-1v1Z"/></svg>

<svg width="20" height="20" viewBox="0 0 20 20" fill="none" xmlns="http://www.w3.org/2000/svg">
<path fill-rule="evenodd" clip-rule="evenodd" d="M4 4H3V5H4V4ZM4 14V6H2V3H5V5H15V3H18V6H16V14H18V17H15V15H5V17H2V14H4ZM16 15V16H17V15H16ZM15 14V6H5V14H15ZM3 15H4V16H3V15ZM16 5H17V4H16V5ZM9 7H6V8H7V12H6V13H9V12H8V8H9V7Z" fill="black"/>
</svg>
